X: 756
T: The Templehouse Jig
M:6/8
L:1/8
B:O'Neill's 756
R:Jig
Z:"Transcribed by Bob Safranek, rjs@gsp.org"
N:"2nd Setting" "Collected by J. O'Neill"
K:Em
       EFE (G2 E) | (B2 E) (G2 E) | DED (F2 D) | (A2 D) (F2 D) |
       EFE (G2 E) | (B2 E) (G2 E) | BcB  cBA   |  BGE     E2  :|
|: f | gbg  ege   |  gbg     ege  | faf  dfd   |  faf    def   |
|1 gbg ege | gbg ege | gbg faf | bge e2 :|
|2 gfe agf | bag fed | B^cd AGF | BGE E2 z |]


